X:5901
T:Gan Ainm
R:strathspey
S:Tommy Peoples & Dermot Byrnes
H:
N:
D:Concert, Galway 
Z:Adrian Scahill
M:4/4
L:1/8
K:A
A,B,CD E<CE2|AEFE AE A<c|A,B,CD E3c|(3dcB (3cBA (3GFE (3DCB,|\
A,B,CD E<CE2|AEFE AEAc|dcdf ecAc|(3dcB (3cBA G<B Bc||\
Aece (3Ace c2|Aece (3Ace (3fga|Aece (3Ace a>g|(3fed (3edc G<B Bc|\
Aece (3Ace c2|Aece (3Ace (3fga|(3agf (3edc (3ded (3cdc|(3fed (3cBA (3GFE (3DCB,||


